src/images_karasa_jaga_svg/cmd/sc_calloutshapes.round-callout.svg

<svg height="16" viewBox="0 0 16 16" width="16" xmlns="http://www.w3.org/2000/svg" xmlns:xlink="http://www.w3.org/1999/xlink"><linearGradient id="a" gradientUnits="userSpaceOnUse" x1="78.668526" x2="78.668526" y1="202.66666" y2="-32.003304"><stop offset="0" stop-color="#fff"/><stop offset=".59375" stop-color="#fff"/><stop offset=".84375" stop-color="#f1f1f1"/><stop offset=".90625" stop-color="#eaeaea"/><stop offset="1" stop-color="#dfdfdf"/></linearGradient><linearGradient id="b" gradientUnits="userSpaceOnUse" x1="-.000001" x2="128" y1="67.999252" y2="67.999252"><stop offset="0" stop-color="#7c9fcf"/><stop offset=".5" stop-color="#7c9ece"/><stop offset="1" stop-color="#7b9dcf"/></linearGradient><g transform="scale(.125)"><path d="m64 8c-16.007163 0-31.954345 4.119785-43.923828 11.814453-11.9694834 7.694668-20.076172 19.502821-20.076172 32.185547a8.0008 8.0008 0 0 0 0 .0059c.00973116 13.967531 9.8436482 26.532273 23.884766 34.335897l-15.041016 30.080083a8.0008 8.0008 0 0 0 12.154297 9.82421l38.167969-30.535152c1.605006.08724 3.196776.283514 4.80664.289062a8.0008 8.0008 0 0 0 .027344 0c16.007163 0 31.954345-4.119785 43.92383-11.814453 11.96948-7.694668 20.07617-19.502821 20.07617-32.185547s-8.10669-24.490879-20.07617-32.185547c-11.969485-7.694668-27.916667-11.814453-43.92383-11.814453z" fill="url(#b)"/><path d="m64 16a56 36 0 0 0 -56 36 56 36 0 0 0 24 29.527344v6.472656l-16 32 40-32-1.75-.583984a56 36 0 0 0 9.75.583984 56 36 0 0 0 56-36 56 36 0 0 0 -56-36z" fill="url(#a)"/></g></svg>

<?xml version="1.0" encoding="UTF-8" standalone="no"?>
<!-- Created with Inkscape (http://www.inkscape.org/) -->

<svg
   xmlns:dc="http://purl.org/dc/elements/1.1/"
   xmlns:cc="http://creativecommons.org/ns#"
   xmlns:rdf="http://www.w3.org/1999/02/22-rdf-syntax-ns#"
   xmlns:svg="http://www.w3.org/2000/svg"
   xmlns="http://www.w3.org/2000/svg"
   xmlns:xlink="http://www.w3.org/1999/xlink"
   xmlns:sodipodi="http://sodipodi.sourceforge.net/DTD/sodipodi-0.dtd"
   xmlns:inkscape="http://www.inkscape.org/namespaces/inkscape"
   version="1.1"
   id="svg2"
   width="128"
   height="128"
   viewBox="0 0 128 128"
   sodipodi:docname="sc_calloutshapes.round-callout.svg"
   inkscape:export-filename="/home/rizmut/Dokumen/Rizmut/Github/libreoffice-style-karasa-jaga/build/images_karasa_jaga/cmd/sc_calloutshapes.round-callout.png"
   inkscape:export-xdpi="12"
   inkscape:export-ydpi="12"
   inkscape:version="0.92.3 (unknown)">
  <metadata
     id="metadata8">
    <rdf:RDF>
      <cc:Work
         rdf:about="">
        <dc:format>image/svg+xml</dc:format>
        <dc:type
           rdf:resource="http://purl.org/dc/dcmitype/StillImage" />
        <dc:title></dc:title>
      </cc:Work>
    </rdf:RDF>
  </metadata>
  <defs
     id="defs6">
    <linearGradient
       inkscape:collect="always"
       id="linearGradient825">
      <stop
         style="stop-color:#f9f9fa;stop-opacity:1;"
         offset="0"
         id="stop821" />
      <stop
         style="stop-color:#f9f9fa;stop-opacity:0;"
         offset="1"
         id="stop823" />
    </linearGradient>
    <linearGradient
       inkscape:collect="always"
       xlink:href="#linearGradient825"
       id="linearGradient1536"
       x1="70.052383"
       y1="-18.468208"
       x2="62.030193"
       y2="84.412926"
       gradientUnits="userSpaceOnUse" />
    <linearGradient
       id="linearGradient3369">
      <stop
         id="stop3372"
         offset="0"
         style="stop-color:#ffffff;stop-opacity:1;" />
      <stop
         style="stop-color:#ffffff;stop-opacity:1;"
         offset="0.59375"
         id="stop3374" />
      <stop
         style="stop-color:#f1f1f1;stop-opacity:1;"
         offset="0.84375"
         id="stop3376" />
      <stop
         id="stop3378"
         offset="0.90625"
         style="stop-color:#eaeaea;stop-opacity:1;" />
      <stop
         id="stop3384"
         offset="1"
         style="stop-color:#dfdfdf;stop-opacity:1;" />
    </linearGradient>
    <linearGradient
       id="linearGradient7422">
      <stop
         style="stop-color:#7c9fcf;stop-opacity:1"
         offset="0"
         id="stop7424" />
      <stop
         id="stop5348"
         offset="0.5"
         style="stop-color:#7c9ece;stop-opacity:1" />
      <stop
         id="stop7426"
         offset="1"
         style="stop-color:#7b9dcf;stop-opacity:1" />
    </linearGradient>
    <linearGradient
       inkscape:collect="always"
       xlink:href="#linearGradient3369"
       id="linearGradient8528"
       x1="72"
       y1="128"
       x2="72"
       y2="0"
       gradientUnits="userSpaceOnUse"
       gradientTransform="matrix(1.8333591,0,0,1.8333591,-53.333333,-32.003303)" />
    <linearGradient
       inkscape:collect="always"
       xlink:href="#linearGradient7422"
       id="linearGradient949"
       x1="-5.3631953e-07"
       y1="67.999252"
       x2="128"
       y2="67.999252"
       gradientUnits="userSpaceOnUse" />
  </defs>
  <sodipodi:namedview
     pagecolor="#ffffff"
     bordercolor="#666666"
     borderopacity="1"
     objecttolerance="10"
     gridtolerance="10"
     guidetolerance="10"
     inkscape:pageopacity="0"
     inkscape:pageshadow="2"
     inkscape:window-width="1366"
     inkscape:window-height="706"
     id="namedview4"
     showgrid="true"
     inkscape:snap-page="true"
     inkscape:snap-global="true"
     inkscape:zoom="1.4142136"
     inkscape:cx="-35.672022"
     inkscape:cy="46.610189"
     inkscape:window-x="0"
     inkscape:window-y="0"
     inkscape:window-maximized="1"
     inkscape:current-layer="svg2"
     inkscape:snap-smooth-nodes="true">
    <inkscape:grid
       type="xygrid"
       id="grid27"
       spacingx="8"
       spacingy="8"
       empspacing="2" />
  </sodipodi:namedview>
  <g
     id="g899">
    <path
       cx="64"
       cy="64"
       r="42.122112"
       style="opacity:1;fill:url(#linearGradient1536);fill-opacity:1;stroke:none;stroke-width:3.85701394;stroke-linecap:round;stroke-linejoin:bevel;stroke-miterlimit:4;stroke-dasharray:none;stroke-dashoffset:0;stroke-opacity:0.73039216"
       id="circle1528" />
    <path
       sodipodi:type="inkscape:offset"
       inkscape:radius="8"
       inkscape:original="M 64 16 A 56 36 0 0 0 8 52 A 56 36 0 0 0 32 81.527344 L 32 88 L 16 120 L 56 88 L 54.25 87.416016 A 56 36 0 0 0 64 88 A 56 36 0 0 0 120 52 A 56 36 0 0 0 64 16 z "
       style="opacity:1;fill:url(#linearGradient949);fill-opacity:1.0;stroke:none;stroke-width:9.70140648;stroke-linecap:square;stroke-linejoin:bevel;stroke-miterlimit:4;stroke-dasharray:none;stroke-dashoffset:0;stroke-opacity:0.73039216"
       id="path939"
       d="M 64,8 C 47.992837,8 32.045655,12.119785 20.076172,19.814453 8.1066886,27.509121 0,39.317274 0,52 a 8.0008,8.0008 0 0 0 0,0.0059 C 0.00973116,65.973431 9.8436482,78.538173 23.884766,86.341797 L 8.84375,116.42188 a 8.0008,8.0008 0 0 0 12.154297,9.82421 L 59.166016,95.710938 c 1.605006,0.08724 3.196776,0.283514 4.80664,0.289062 A 8.0008,8.0008 0 0 0 64,96 C 80.007163,96 95.954345,91.880215 107.92383,84.185547 119.89331,76.490879 128,64.682726 128,52 128,39.317274 119.89331,27.509121 107.92383,19.814453 95.954345,12.119785 80.007163,8 64,8 Z" />
    <path
       style="opacity:1;fill:url(#linearGradient8528);fill-opacity:1;stroke:none;stroke-width:9.70140648;stroke-linecap:square;stroke-linejoin:bevel;stroke-miterlimit:4;stroke-dasharray:none;stroke-dashoffset:0;stroke-opacity:0.73039216"
       d="M 64 16 A 56 36 0 0 0 8 52 A 56 36 0 0 0 32 81.527344 L 32 88 L 16 120 L 56 88 L 54.25 87.416016 A 56 36 0 0 0 64 88 A 56 36 0 0 0 120 52 A 56 36 0 0 0 64 16 z "
       id="rect8502" />
  </g>
</svg>
